.svelte-kit/output/client/library/social-播客.svg

<svg width="48" height="48" viewBox="0 0 48 48" fill="none" xmlns="http://www.w3.org/2000/svg">
<rect x="6" y="6" width="36" height="36" rx="8" fill="#CC45EA"/>
<circle cx="24" cy="23" r="12" stroke="white" stroke-width="2"/>
<circle cx="24" cy="23" r="8" stroke="white" stroke-width="2"/>
<path d="M22.7656 25.35C21.1716 25.35 19.9383 26.747 20.136 28.3287L21.1798 36.6791C21.3206 37.805 22.2777 38.65 23.4125 38.65H24.5875C25.7223 38.65 26.6794 37.805 26.8202 36.6791L27.864 28.3287C28.0617 26.747 26.8284 25.35 25.2344 25.35H22.7656Z" fill="white" stroke="#CC45EA" stroke-width="1.3"/>
<circle cx="24" cy="22" r="3" fill="white"/>
</svg>

<svg width="48" height="48" fill="none" xmlns="http://www.w3.org/2000/svg"><rect x="6" y="6" width="36" height="36" rx="8" fill="#CC45EA"/><circle cx="24" cy="23" r="12" stroke="#fff" stroke-width="2"/><circle cx="24" cy="23" r="8" stroke="#fff" stroke-width="2"/><path d="M22.766 25.35a2.65 2.65 0 0 0-2.63 2.979l1.044 8.35a2.25 2.25 0 0 0 2.233 1.971h1.174a2.25 2.25 0 0 0 2.233-1.97l1.044-8.351a2.65 2.65 0 0 0-2.63-2.979h-2.468Z" fill="#fff" stroke="#CC45EA" stroke-width="1.3"/><circle cx="24" cy="22" r="3" fill="#fff"/></svg>
